brandFactory_export/2.Regular/Rewind_2Regular.svg

<?xml version="1.0" encoding="UTF-8"?>
<svg width="24px" height="24px" viewBox="0 0 24 24" version="1.1" xmlns="http://www.w3.org/2000/svg" xmlns:xlink="http://www.w3.org/1999/xlink">
    <title>2.Regular/Rewind_2Regular</title>
    <g id="Symbols" stroke="none" stroke-width="1" fill="none" fill-rule="evenodd">
        <g id="2.Regular/Rewind_2Regular" fill="#5CB615" fill-rule="nonzero">
            <path d="M11.8386555,0.0268907563 C15.5932773,0.0268907563 18.5142857,1.00840336 20.5243697,2.94117647 C22.6084034,4.9512605 23.6638655,7.94621849 23.6638655,11.8521008 C23.6638655,15.7546218 22.6084034,18.7529412 20.5243697,20.7596639 C18.5142857,22.692437 15.5932773,23.6705882 11.8386555,23.6705882 C8.08403361,23.6705882 5.16302521,22.6890756 3.15630252,20.7563025 C1.07563025,18.7495798 0.0201680674,15.7546218 0.0201680674,11.8487395 C0.0201680674,7.94621849 1.07563025,4.94789916 3.15630252,2.93781513 C5.16302521,1.00840336 8.08403361,0.0268907563 11.8386555,0.0268907563 Z M11.8386555,1.33445378 C4.86386555,1.33445378 1.32773109,4.87394958 1.32773109,11.8521008 C1.32773109,18.8268908 4.86386555,22.3630252 11.8386555,22.3630252 C18.8168067,22.3630252 22.3563025,18.8268908 22.3563025,11.8521008 C22.3529412,4.87394958 18.8168067,1.33445378 11.8386555,1.33445378 Z M10.9848739,7.31428571 C11.1966387,7.43193277 11.3277311,7.65714286 11.3277311,7.89915966 L11.3270108,11.0607431 C11.3721871,11.0089687 11.4255056,10.9638563 11.4857143,10.9277311 L17.4722689,7.33109244 C17.6806723,7.20672269 17.9394958,7.20336134 18.1478992,7.3210084 C18.3596639,7.43865546 18.4907563,7.66386555 18.4907563,7.90588235 L18.4907563,15.0655462 C18.4907563,15.307563 18.3596639,15.5294118 18.1512605,15.6504202 C18.0470588,15.707563 17.9327731,15.7378151 17.8184874,15.7378151 C17.7008403,15.7378151 17.5798319,15.707563 17.4756303,15.6436975 L11.4890756,12.0806723 C11.4277588,12.0438822 11.3732774,11.9980817 11.3271429,11.945538 L11.3277311,15.0588235 C11.3277311,15.3008403 11.1966387,15.5226891 10.9882353,15.6436975 C10.8840336,15.7042017 10.7697479,15.7310924 10.6554622,15.7310924 C10.5378151,15.7310924 10.4168067,15.7008403 10.312605,15.6369748 L4.32605042,12.0739496 C4.12436975,11.9529412 3.99663866,11.7344538 3.99663866,11.4991597 C3.99663866,11.2638655 4.1210084,11.0420168 4.32268908,10.9210084 L10.3092437,7.32436975 C10.5176471,7.2 10.7764706,7.19663866 10.9848739,7.31428571 Z M17.1462185,9.09243697 L13.1394958,11.4991597 L17.1462185,13.8823529 L17.1462185,9.09243697 Z M9.98319328,9.08907563 L5.97983193,11.492437 L9.98319328,13.8789916 L9.98319328,9.08907563 Z" id="Rewind_2Regular"></path>
        </g>
    </g>
</svg>

<svg width="24" height="24" viewBox="0 0 24 24" xmlns="http://www.w3.org/2000/svg"><path d="M11.839.027c3.754 0 6.675.981 8.685 2.914 2.084 2.01 3.14 5.005 3.14 8.911 0 3.903-1.056 6.9-3.14 8.908-2.01 1.932-4.93 2.91-8.685 2.91-3.755 0-6.676-.98-8.683-2.914C1.076 18.75.02 15.755.02 11.85c0-3.903 1.056-6.901 3.136-8.911C5.163 1.008 8.084.027 11.84.027zm0 1.307c-6.975 0-10.511 3.54-10.511 10.518 0 6.975 3.536 10.511 10.51 10.511 6.979 0 10.518-3.536 10.518-10.51-.003-6.98-3.54-10.519-10.517-10.519zm-.854 5.98a.67.67 0 01.343.585l-.001 3.162a.664.664 0 01.159-.133l5.986-3.597a.674.674 0 011.019.575v7.16a.678.678 0 01-.34.584.693.693 0 01-.333.088.659.659 0 01-.342-.094l-5.987-3.563a.684.684 0 01-.162-.135v3.113a.678.678 0 01-.339.585.657.657 0 01-.333.087.659.659 0 01-.342-.094l-5.987-3.563a.675.675 0 01-.33-.575c0-.235.125-.457.327-.578l5.986-3.597a.674.674 0 01.676-.01zm6.161 1.778L13.14 11.5l4.007 2.383v-4.79zM9.983 9.09L5.98 11.492l4.003 2.387v-4.79z" fill="#5CB615" fill-rule="nonzero"/></svg>
